images/currency.svg

<svg width="22" height="25" viewBox="0 0 22 25" fill="none" xmlns="http://www.w3.org/2000/svg">
<path d="M0.550154 21.0224H4.40024V24.4319C4.40024 24.5978 4.45161 24.7336 4.55498 24.8397C4.65807 24.9466 4.78986 25 4.95039 25H7.82057C7.96953 25 8.09842 24.9466 8.20729 24.8397C8.31617 24.7336 8.37044 24.5977 8.37044 24.4319V21.0224H17.0501C17.2103 21.0224 17.3422 20.9696 17.4455 20.8628C17.5489 20.7561 17.6002 20.6202 17.6002 20.4543V18.1815C17.6002 18.0165 17.5489 17.8798 17.4455 17.7736C17.3425 17.6668 17.2103 17.6134 17.0501 17.6134H8.37015V15.5181H14.2139C16.5055 15.5181 18.3758 14.7968 19.8257 13.352C21.275 11.9088 22 10.0445 22 7.75905C22 5.47511 21.275 3.61077 19.8257 2.16608C18.3761 0.72281 16.5054 0 14.2139 0H4.95011C4.78953 0 4.65802 0.0533691 4.5547 0.159568C4.45161 0.266355 4.39995 0.403086 4.39995 0.568045V11.7366H0.550154C0.389619 11.7366 0.25807 11.7927 0.154747 11.9052C0.0517089 12.0176 0 12.1508 0 12.3046V14.95C0 15.1158 0.0513769 15.2517 0.154747 15.3585C0.258118 15.4653 0.389335 15.518 0.550154 15.518H4.40024V17.6133H0.550154C0.389619 17.6133 0.25807 17.6667 0.154747 17.7736C0.0517089 17.8797 0 18.0162 0 18.1814V20.4542C0 20.6201 0.0513769 20.756 0.154747 20.8627C0.25807 20.9696 0.389572 21.0224 0.550154 21.0224ZM8.37015 3.78234H13.8702C15.0846 3.78234 16.0642 4.14916 16.8092 4.88305C17.5538 5.61698 17.9263 6.57611 17.9263 7.75934C17.9263 8.94316 17.5538 9.90258 16.8092 10.6356C16.0642 11.3702 15.0846 11.737 13.8702 11.737H8.37015V3.78234Z" fill="white"/>
</svg>

<svg width="22" height="25" fill="none" xmlns="http://www.w3.org/2000/svg"><path d="M.55 21.022H4.4v3.41a.56.56 0 0 0 .155.408c.103.107.235.16.395.16h2.87a.533.533 0 0 0 .387-.16.544.544 0 0 0 .163-.408v-3.41h8.68c.16 0 .292-.052.395-.16a.562.562 0 0 0 .155-.408v-2.273a.561.561 0 0 0-.155-.407.526.526 0 0 0-.395-.16H8.37v-2.096h5.844c2.292 0 4.162-.721 5.612-2.166C21.275 11.909 22 10.044 22 7.759c0-2.284-.725-4.148-2.174-5.593C18.376.723 16.506 0 14.214 0H4.95a.528.528 0 0 0-.395.16.565.565 0 0 0-.155.408v11.169H.55a.513.513 0 0 0-.395.168.572.572 0 0 0-.155.4v2.645c0 .166.051.302.155.409.103.106.234.159.395.159H4.4v2.095H.55a.526.526 0 0 0-.395.16.562.562 0 0 0-.155.408v2.273c0 .166.051.302.155.409.103.107.235.16.395.16zm7.82-17.24h5.5c1.215 0 2.194.367 2.94 1.101.744.734 1.116 1.693 1.116 2.876 0 1.184-.372 2.144-1.117 2.877-.745.734-1.724 1.101-2.939 1.101h-5.5V3.782z" fill="#fff"/></svg>
